findly-builder/apps/searchassist/src/assets/images/icons/fa-spinner.svg

<?xml version="1.0" encoding="UTF-8"?>
<svg width="16px" height="16px" viewBox="0 0 16 16" version="1.1" xmlns="http://www.w3.org/2000/svg" xmlns:xlink="http://www.w3.org/1999/xlink">
    <!-- Generator: Sketch 53.2 (72643) - https://sketchapp.com -->
    <title>fa-spinner</title>
    <desc>Created with Sketch.</desc>
    <g id="Page-1" stroke="none" stroke-width="1" fill="none" fill-rule="evenodd">
        <path d="M4.35714286,11.9285714 C4.58333446,12.1488106 4.69642857,12.4166651 4.69642857,12.7321429 C4.69642857,13.0476206 4.58482254,13.3169632 4.36160714,13.5401786 C4.13839174,13.763394 3.8690492,13.875 3.55357143,13.875 C3.24404607,13.875 2.97619161,13.7619059 2.75,13.5357143 C2.52380839,13.3095227 2.41071429,13.0416682 2.41071429,12.7321429 C2.41071429,12.4166651 2.52232031,12.1473225 2.74553571,11.9241071 C2.96875112,11.7008917 3.23809366,11.5892857 3.55357143,11.5892857 C3.8690492,11.5892857 4.13690366,11.7023798 4.35714286,11.9285714 Z M8.80357143,13.7678571 C9.02976304,13.9880963 9.14285714,14.2559508 9.14285714,14.5714286 C9.14285714,14.8869063 9.03125112,15.1562489 8.80803571,15.3794643 C8.58482031,15.6026797 8.31547777,15.7142857 8,15.7142857 C7.68452223,15.7142857 7.41517969,15.6026797 7.19196429,15.3794643 C6.96874888,15.1562489 6.85714286,14.8869063 6.85714286,14.5714286 C6.85714286,14.2559508 6.96874888,13.9866083 7.19196429,13.7633929 C7.41517969,13.5401775 7.68452223,13.4285714 8,13.4285714 C8.31547777,13.4285714 8.58333223,13.5416655 8.80357143,13.7678571 Z M2.51785714,7.48214286 C2.74404875,7.70238205 2.85714286,7.97023652 2.85714286,8.28571429 C2.85714286,8.60119205 2.74553683,8.8705346 2.52232143,9.09375 C2.29910603,9.3169654 2.02976348,9.42857143 1.71428571,9.42857143 C1.39880795,9.42857143 1.1294654,9.3169654 0.90625,9.09375 C0.683034598,8.8705346 0.571428571,8.60119205 0.571428571,8.28571429 C0.571428571,7.97023652 0.683034598,7.70089397 0.90625,7.47767857 C1.1294654,7.25446317 1.39880795,7.14285714 1.71428571,7.14285714 C2.02976348,7.14285714 2.29761795,7.25595125 2.51785714,7.48214286 Z M13.5892857,12.7321429 C13.5892857,13.0416682 13.4761916,13.3095227 13.25,13.5357143 C13.0238084,13.7619059 12.7559539,13.875 12.4464286,13.875 C12.1309508,13.875 11.8616083,13.763394 11.6383929,13.5401786 C11.4151775,13.3169632 11.3035714,13.0476206 11.3035714,12.7321429 C11.3035714,12.4166651 11.4151775,12.1473225 11.6383929,11.9241071 C11.8616083,11.7008917 12.1309508,11.5892857 12.4464286,11.5892857 C12.7619063,11.5892857 13.0312489,11.7008917 13.2544643,11.9241071 C13.4776797,12.1473225 13.5892857,12.4166651 13.5892857,12.7321429 Z M4.5625,2.83035714 C4.8422633,3.11012045 4.98214286,3.44642661 4.98214286,3.83928571 C4.98214286,4.23214482 4.8422633,4.56845098 4.5625,4.84821429 C4.2827367,5.12797759 3.94643054,5.26785714 3.55357143,5.26785714 C3.16071232,5.26785714 2.82440616,5.12797759 2.54464286,4.84821429 C2.26487955,4.56845098 2.125,4.23214482 2.125,3.83928571 C2.125,3.44642661 2.26487955,3.11012045 2.54464286,2.83035714 C2.82440616,2.55059384 3.16071232,2.41071429 3.55357143,2.41071429 C3.94643054,2.41071429 4.2827367,2.55059384 4.5625,2.83035714 Z M15.0892857,7.48214286 C15.3154773,7.70238205 15.4285714,7.97023652 15.4285714,8.28571429 C15.4285714,8.60119205 15.3169654,8.8705346 15.09375,9.09375 C14.8705346,9.3169654 14.6011921,9.42857143 14.2857143,9.42857143 C13.9702365,9.42857143 13.700894,9.3169654 13.4776786,9.09375 C13.2544632,8.8705346 13.1428571,8.60119205 13.1428571,8.28571429 C13.1428571,7.97023652 13.2544632,7.70089397 13.4776786,7.47767857 C13.700894,7.25446317 13.9702365,7.14285714 14.2857143,7.14285714 C14.6011921,7.14285714 14.8690465,7.25595125 15.0892857,7.48214286 Z M9.21428571,0.785714286 C9.54762071,1.11904929 9.71428571,1.52380714 9.71428571,2 C9.71428571,2.47619286 9.54762071,2.88095071 9.21428571,3.21428571 C8.88095071,3.54762071 8.47619286,3.71428571 8,3.71428571 C7.52380714,3.71428571 7.11904929,3.54762071 6.78571429,3.21428571 C6.45237929,2.88095071 6.28571429,2.47619286 6.28571429,2 C6.28571429,1.52380714 6.45237929,1.11904929 6.78571429,0.785714286 C7.11904929,0.452379286 7.52380714,0.285714286 8,0.285714286 C8.47619286,0.285714286 8.88095071,0.452379286 9.21428571,0.785714286 Z M14.4464286,3.83928571 C14.4464286,4.39285991 14.250002,4.86458138 13.8571429,5.25446429 C13.4642837,5.64434719 12.9940504,5.83928571 12.4464286,5.83928571 C11.8928544,5.83928571 11.4211329,5.64434719 11.03125,5.25446429 C10.6413671,4.86458138 10.4464286,4.39285991 10.4464286,3.83928571 C10.4464286,3.29166393 10.6413671,2.82143054 11.03125,2.42857143 C11.4211329,2.03571232 11.8928544,1.83928571 12.4464286,1.83928571 C12.9940504,1.83928571 13.4642837,2.03571232 13.8571429,2.42857143 C14.250002,2.82143054 14.4464286,3.29166393 14.4464286,3.83928571 Z" id="fa-spinner" fill="#FFFFFF" fill-rule="nonzero"></path>
    </g>
</svg>

<svg width="16" height="16" xmlns="http://www.w3.org/2000/svg"><path d="M4.357 11.929c.226.22.34.488.34.803a1.1 1.1 0 0 1-.335.808 1.101 1.101 0 0 1-.808.335c-.31 0-.578-.113-.804-.34a1.098 1.098 0 0 1-.34-.803 1.1 1.1 0 0 1 .336-.808 1.1 1.1 0 0 1 .808-.335c.315 0 .583.113.803.34Zm4.447 1.839c.226.22.339.488.339.803a1.1 1.1 0 0 1-.335.808 1.101 1.101 0 0 1-.808.335c-.315 0-.585-.111-.808-.335a1.101 1.101 0 0 1-.335-.808c0-.315.112-.584.335-.808.223-.223.493-.334.808-.334.315 0 .583.113.804.339ZM2.518 7.482c.226.22.34.488.34.804a1.1 1.1 0 0 1-.336.808 1.101 1.101 0 0 1-.808.335c-.315 0-.585-.112-.808-.335a1.101 1.101 0 0 1-.335-.808 1.1 1.1 0 0 1 .335-.808c.223-.224.493-.335.808-.335.316 0 .584.113.804.34Zm11.071 5.25c0 .31-.113.578-.339.804a1.099 1.099 0 0 1-.804.339c-.315 0-.584-.112-.808-.335a1.101 1.101 0 0 1-.334-.808c0-.315.111-.585.334-.808.224-.223.493-.335.808-.335a1.1 1.1 0 0 1 .808.335c.224.223.335.493.335.808ZM4.562 2.83c.28.28.42.616.42 1.01 0 .392-.14.728-.42 1.008-.28.28-.616.42-1.008.42-.393 0-.73-.14-1.01-.42a1.374 1.374 0 0 1-.419-1.009c0-.393.14-.729.42-1.009.28-.28.616-.42 1.009-.42.392 0 .729.14 1.009.42ZM15.09 7.482c.226.22.34.488.34.804 0 .315-.112.585-.335.808a1.101 1.101 0 0 1-.808.335 1.1 1.1 0 0 1-.808-.335 1.101 1.101 0 0 1-.335-.808c0-.316.111-.585.335-.808.223-.224.492-.335.808-.335.315 0 .583.113.803.34ZM9.214.786c.334.333.5.738.5 1.214s-.166.881-.5 1.214c-.333.334-.738.5-1.214.5s-.881-.166-1.214-.5A1.653 1.653 0 0 1 6.286 2c0-.476.166-.881.5-1.214.333-.334.738-.5 1.214-.5s.881.166 1.214.5Zm5.232 3.053a1.92 1.92 0 0 1-.589 1.415c-.393.39-.863.585-1.41.585a1.928 1.928 0 0 1-1.416-.585 1.928 1.928 0 0 1-.585-1.415c0-.547.195-1.018.585-1.41a1.92 1.92 0 0 1 1.415-.59c.548 0 1.018.197 1.411.59.393.392.59.863.59 1.41Z" fill="#FFF"/></svg>
